!!!COM: Anon.
!!!OTL: Celum Non Animum
!!!SCA: Folio 223'-224
!!!YOR: from 'Thirty-Five Conductus for Two and Three Voices', p.32
!!!YOR: edited by Janet Knapp, Collegium Musicum No. 6, Yale University (1965)
!!!YOR: from the School of Notre Dame; circa 1170-1240
!!!YOO: Yale University
!!!YOY: 1965
**kern	**kern	**kern
*M6/8	*M6/8	*M6/8
=1	=1	=1
8d	8f#	8B
4d	4g	16c
.	.	16B
.	.	8A
4.d	8g	4.G
.	8g	.
.	8fn	.
=2	=2	=2
8d	16e	8A
.	16d	.
4d	4e	4A
8d	8d	8G
4r	4r	4r
=3	=3	=3
8e	16e	8B
.	16d	.
4f	4c	4c
4.d	8B	8d
.	8B	8e
.	8A	8f#
=4	=4	=4
8e	8G	8g
4c	4A	8f#
.	.	8e
8d	8G	8g
4r	4r	4r
=5	=5	=5
8B	8B	8f
4G	4c	4g
4.A	8d	4.a
.	8d	.
.	8e	.
=6	=6	=6
8A	8d	8a
4B	16c	8b
.	16B	.
.	8A	16b
.	.	16a
8c	8G	16g
.	.	16f#
4r	8G	8e
.	8A	8d
=7	=7	=7
8B	8G	8e
4A	4F#	4f#
8G	8G	8g
4r	4r	4r
=8	=8	=8
8B	8d	8f#
4A	4c#	8f#
.	.	8e
8G	8d	8g
4r	4r	4r
=9	=9	=9
8F#	8c#	8f#
4G	8d	8g
.	8c#	8f#
4.A	4.A	4.e
=10	=10	=10
8A	8c	8a
4A	4d	16b
.	.	16a
.	.	8g
8A	8e	8a
4r	8e	8a
.	8d	8g
=11	=11	=11
8A	8c	8e
4B	8B	4f#
.	8A	.
4.c	4.G	4.g
=12	=12	=12
8A	8d	{24g
.	.	24f#
.	.	24e}
4G	4c	4g
8B	8B	8f#
4r	4r	4r
=13	=13	=13
8B	8e	8b
4c	4f	4g
4.d	4.d	8a
.	.	8a
.	.	8g
=14	=14	=14
8d	16e	16f#
.	16d	16e
8e	16c	8e
.	16B	.
8d	8A	8f#
8c	8c	8g
4r	4r	4r
=15	=15	=15
8e	8e	8b
4g	4c	4g
4.f	4.f	8fn
.	.	8g
.	.	8a
=16	=16	=16
8e	16e	16b
.	16d	16a
4g	8d	8a
.	8c	8g
8d	8d	8a
4r	4r	4r
=17	=17	=17
8e	8e	8g
4f	4d	4a
8e	4.e	8b
8e	.	8b
8d	.	8a
=18	=18	=18
8c	8f	8cc
4B	8f	16b
.	.	16a
.	8d	8g
8A	8e	8a
4r	8e	8a
.	8f	8g
=19	=19	=19
8B	8e	8e
4d	4d	4f#
4.c	16c	4.g
.	16B	.
.	8A	.
.	8G	.
=20	=20	=20
8d	8A	8g
16c	8A	4f#
16B	.	.
8A	8B	.
8G	8d	8g
4r	4r	4r
=21	=21	=21
8F	8f	8fn
4G	8g	4g
.	8f	.
4.A	8e	16a
.	.	16g
.	8e	8fn
.	8d	8e
=22	=22	=22
8B	16c	8d
.	16B	.
4G	8B	8e
.	8A	8f
8d	8G	8g
4r	4r	4r
=23	=23	=23
8B	8d	8f#
4c	4e	4g
8B	8f#	8f#
8B	8f#	8e
8A	8e	8d
=24	=24	=24
8G	16g	8f#
.	16f#	.
4F#	8e	16g
.	.	16a
.	8d	16a
.	.	16g
8G	8d	8g
4r	4r	4r
==	==	==
*-	*-	*-
!!!ENC: David Huron
!!!YEC: Copyright 1987, David Huron
!!!EEV: 1.0
